svgs/large/bug.svg

<svg version="1.1" xmlns="http://www.w3.org/2000/svg" width="32" height="32" viewBox="0 0 32 32">
<title>bug</title>
<path d="M27.5 16h-4.512l-0.011-4h0.023c1.657 0 3-1.343 3-3v0-4.5c0-0.276-0.224-0.5-0.5-0.5s-0.5 0.224-0.5 0.5v0 4.5c0 1.105-0.895 2-2 2v0h-2c0-2.761-2.239-5-5-5s-5 2.239-5 5v0h-2c-1.105 0-2-0.895-2-2v0-4.5c0-0.276-0.224-0.5-0.5-0.5s-0.5 0.224-0.5 0.5v0 4.5c0 0 0 0 0 0 0 1.654 1.339 2.995 2.992 3h0v4h-4.492c-0.276 0-0.5 0.224-0.5 0.5s0.224 0.5 0.5 0.5v0h4.5c0 0.002 0 0.005 0 0.008 0 1.227 0.318 2.38 0.875 3.38l-0.018-0.035-2.657 1.997c-0.73 0.555-1.197 1.422-1.2 2.4v2.75c0 0.276 0.224 0.5 0.5 0.5s0.5-0.224 0.5-0.5v0-2.75c0.002-0.652 0.313-1.23 0.795-1.596l0.005-0.004 2.6-1.95c1.288 1.709 3.315 2.803 5.596 2.803s4.308-1.093 5.584-2.785l0.013-0.018 2.607 1.95c0.487 0.369 0.799 0.948 0.8 1.6v2.75c0 0.276 0.224 0.5 0.5 0.5s0.5-0.224 0.5-0.5v0-2.75c-0.002-0.978-0.469-1.846-1.193-2.395l-0.007-0.005-2.664-2c0.538-0.964 0.855-2.115 0.855-3.34 0-0.003 0-0.007 0-0.010v0.001h4.509c0.276 0 0.5-0.224 0.5-0.5s-0.224-0.5-0.5-0.5v0zM16 7c2.209 0 4 1.791 4 4v0h-8c0-2.209 1.791-4 4-4v0zM16 23c-3.314 0-6-2.686-6-6v0-0.461c0-0.014 0-0.028 0-0.042s0-0.029 0-0.044l-0.008-4.453h11.985l0.014 5c0 0 0 0 0 0 0 3.311-2.681 5.995-5.991 6h-0.001z"></path>
<path d="M14.5 14c-0.276 0-0.5 0.224-0.5 0.5v0c-0.002 1.299-0.312 2.525-0.862 3.609l0.021-0.046-0.106 0.212c-0.034 0.066-0.055 0.144-0.055 0.227 0 0.276 0.224 0.5 0.5 0.5 0.196 0 0.365-0.113 0.447-0.277l0.001-0.003 0.106-0.212c0.595-1.169 0.945-2.549 0.947-4.010v-0.001c0-0.276-0.224-0.5-0.5-0.5v0z"></path>
<path d="M18.842 18.064c-0.53-1.038-0.841-2.265-0.842-3.564v-0c0-0.276-0.224-0.5-0.5-0.5s-0.5 0.224-0.5 0.5v0c0.001 1.462 0.351 2.842 0.971 4.061l-0.024-0.051 0.106 0.212c0.080 0.176 0.254 0.296 0.457 0.296 0.276 0 0.5-0.224 0.5-0.5 0-0.089-0.023-0.172-0.064-0.245l0.001 0.003z"></path>
</svg>

<svg id="Layer_1" data-name="Layer 1" xmlns="http://www.w3.org/2000/svg" width="32" height="32" viewBox="0 0 32 32"><g id="Layer_4" data-name="Layer 4"><path d="M27.5,16H22.988l-.011-4H23a3,3,0,0,0,3-3V4.5a.5.5,0,0,0-1,0V9a2,2,0,0,1-2,2H21a5,5,0,0,0-10,0H9A2,2,0,0,1,7,9V4.5a.5.5,0,0,0-1,0V9a3,3,0,0,0,2.992,3v4H4.5a.5.5,0,0,0,0,1H9a6.957,6.957,0,0,0,.857,3.353l-2.657,2A3.012,3.012,0,0,0,6,24.75V27.5a.5.5,0,0,0,1,0V24.75a2.01,2.01,0,0,1,.8-1.6l2.6-1.95a6.989,6.989,0,0,0,11.193,0L24.2,23.15a2.006,2.006,0,0,1,.8,1.6V27.5a.5.5,0,0,0,1,0V24.75a3.008,3.008,0,0,0-1.2-2.4l-2.664-2A6.943,6.943,0,0,0,22.991,17H27.5a.5.5,0,0,0,0-1ZM16,7a4,4,0,0,1,4,4H12A4,4,0,0,1,16,7Zm0,16a6,6,0,0,1-6-6l-.008-5H21.977l.014,5A6,6,0,0,1,16,23Z"/></g></svg>
